X: 4388
M: 2/4
L: 1/8
K: G
(B/c/) |\
ded>B | GBd>g | f2e2 | e^de2 |\
cdc>A | FAc>e | e2d2 | d^cd2 |\
ded>B | GBd>g | f2e2 | e2(fg) |\
aba>g | fde>f | g2[g2B2] | [g3B3] H:|
|: (A/d/) |\
f2f2 | gfe>d | f2e2 | e^de2 |\


